svg/sheep.svg

<svg xmlns="http://www.w3.org/2000/svg" viewBox="0 0 24 24"><path d="M20 8.5a2.5 2.5 0 0 1-2.5 2.5c-1.08 0-2-.69-2.34-1.64-.44.39-1.02.64-1.66.64-.56 0-1.08-.19-1.5-.5-.42.31-.93.5-1.5.5-.64 0-1.22-.25-1.66-.64C8.5 10.31 7.58 11 6.5 11A2.5 2.5 0 0 1 4 8.5c0-1.24.91-2.27 2.1-2.46-.06-.17-.1-.35-.1-.54A1.5 1.5 0 0 1 7.5 4c.2 0 .39.04.56.11C8.23 3.47 8.81 3 9.5 3c.25 0 .5.07.68.17C10.5 2.5 11.19 2 12 2s1.5.5 1.82 1.17c.18-.1.43-.17.68-.17.69 0 1.27.47 1.44 1.11.17-.07.36-.11.56-.11A1.5 1.5 0 0 1 18 5.5c0 .19-.04.37-.1.54 1.19.19 2.1 1.22 2.1 2.46M10 12a1 1 0 0 0-1 1 1 1 0 0 0 1 1 1 1 0 0 0 1-1 1 1 0 0 0-1-1m4 0a1 1 0 0 0-1 1 1 1 0 0 0 1 1 1 1 0 0 0 1-1 1 1 0 0 0-1-1m6.23-1.34c-.64.81-1.62 1.34-2.73 1.34-.45 0-.88-.1-1.29-.27-.01 2.55-.38 5.63-1.76 7.22-.52.59-1.15.91-1.95 1.01V18h-1v1.96c-.8-.1-1.43-.41-1.95-1.01-1.39-1.6-1.76-4.66-1.77-7.21-.4.16-.83.26-1.28.26-1.11 0-2.09-.53-2.73-1.34C2.88 11.55 2 12 2 12s1 2 3 2c.36 0 .64-.04.88-.09C6.22 17.73 7.58 22 12 22s5.78-4.27 6.12-8.09c.24.05.52.09.88.09 2 0 3-2 3-2s-.88-.45-1.77-1.34"/></svg>

<?xml version="1.0" encoding="UTF-8"?><!DOCTYPE svg PUBLIC "-//W3C//DTD SVG 1.1//EN" "http://www.w3.org/Graphics/SVG/1.1/DTD/svg11.dtd"><svg xmlns="http://www.w3.org/2000/svg" xmlns:xlink="http://www.w3.org/1999/xlink" version="1.1" id="mdi-sheep" width="24" height="24" viewBox="0 0 24 24"><path d="M20,8.5A2.5,2.5 0 0,1 17.5,11C16.42,11 15.5,10.31 15.16,9.36C14.72,9.75 14.14,10 13.5,10C12.94,10 12.42,9.81 12,9.5C11.58,9.81 11.07,10 10.5,10C9.86,10 9.28,9.75 8.84,9.36C8.5,10.31 7.58,11 6.5,11A2.5,2.5 0 0,1 4,8.5C4,7.26 4.91,6.23 6.1,6.04C6.04,5.87 6,5.69 6,5.5A1.5,1.5 0 0,1 7.5,4C7.7,4 7.89,4.04 8.06,4.11C8.23,3.47 8.81,3 9.5,3C9.75,3 10,3.07 10.18,3.17C10.5,2.5 11.19,2 12,2C12.81,2 13.5,2.5 13.82,3.17C14,3.07 14.25,3 14.5,3C15.19,3 15.77,3.47 15.94,4.11C16.11,4.04 16.3,4 16.5,4A1.5,1.5 0 0,1 18,5.5C18,5.69 17.96,5.87 17.9,6.04C19.09,6.23 20,7.26 20,8.5M10,12A1,1 0 0,0 9,13A1,1 0 0,0 10,14A1,1 0 0,0 11,13A1,1 0 0,0 10,12M14,12A1,1 0 0,0 13,13A1,1 0 0,0 14,14A1,1 0 0,0 15,13A1,1 0 0,0 14,12M20.23,10.66C19.59,11.47 18.61,12 17.5,12C17.05,12 16.62,11.9 16.21,11.73C16.2,14.28 15.83,17.36 14.45,18.95C13.93,19.54 13.3,19.86 12.5,19.96V18H11.5V19.96C10.7,19.86 10.07,19.55 9.55,18.95C8.16,17.35 7.79,14.29 7.78,11.74C7.38,11.9 6.95,12 6.5,12C5.39,12 4.41,11.47 3.77,10.66C2.88,11.55 2,12 2,12C2,12 3,14 5,14C5.36,14 5.64,13.96 5.88,13.91C6.22,17.73 7.58,22 12,22C16.42,22 17.78,17.73 18.12,13.91C18.36,13.96 18.64,14 19,14C21,14 22,12 22,12C22,12 21.12,11.55 20.23,10.66Z" /></svg>
